!!!SOCIAL_FUNCTION:	songs of the heyo'ka
!!!PDT:	1918

Specific Region: Dakotas, Minnesota, Montana, Nebraska
!!!REG: Dakotas and Montana
!!!LING_GROUP: Siouan
!!!LANG: Tone
!!!OTL@ENG: The Thunderbird Nation
!!!ONM: No. 43
**kern
*Imale
*clefF4
*k[f#]
*M3/4
*MM76
8B
8B
=1
2.B
=2||
*M2/4
4A
(8.A
16G)
=3
16G
8.G
[4G
=4||
*M3/4
2G]
8.E
16G
=5
2.G
=6||
*M2/4
4G
(8.G
16E)
=7
16D
8.D
8.D
16D
=8
2D
=9
4..D
16d
=10
(16d
16A)
16.A
32d
(16d
16A)
8A
=11
16G
8.G
4G
=12
4G
8.E
16G
=13||
*M3/4
2.G
=14||
*M2/4
4G
(8.G
16E)
=15
16D
8.D
[4D
=16
2D]
=17
4BB
8.BB
16BB
=18||
*M3/4
2.BB
=19||
*M2/4
4AA
4AA
=20
16GG
8.GG
[4GG
=21
2GG]
=22
4GG
8.GG
16GG
=23||
*M3/4
2.GG
=24||
*M2/4
4GG
4GG
=25
16DD
8.DD
8.DD
16DD
=26
2DD
==
*-
!!!CNT: Native American -- Sioux
!!!MRD: 1911/07//-1914///
!!!OCL: Frances Densmore
!!!YOR1: Teton Sioux Music, Bulletin 61,
!!!YOR2: Bureau of American Ethnology, Smithsonian Institution
!!!PPR: Government Printing Office
!!!PPP: Washington, D.C.
!!!PDT: 1918///
!!!ENC: Craig Stuart Sapp
!!!END: 2002/03/25/
!!!EEV: 2002/03/31/
!!!AGN: Ceremonial Song/Song of the Heyoka
!!!MPN@@SIO: Waking'yan-wata'kpe
!!!MPN@ENG: Charging Thunder
!!!TXO: Teton Sioux
!!!MLC: Standing Rock Reservation, South Dakota, United States of America
!!!ARL: 45.9/-100.7#
!!!catalog: Catalogue No. 571
!!!PPG: 171
!!!EFL: 43/245
!!!VTS: 2732573026
